X:21
T:Michal Turner's
R:Mazurka
C:Trad.
O:
A:
Z:Galouvielle - Michel Bellon - Novembre 2004 - galouvielle@free.fr
S:Mireille Halary
M:3/4
L:1/4
Q:1/4=120
K:G
GA  |: "G" B B/D/ c/D/ | d d g/f/ | "C"e e/g/ "D"f/e/ | "G"d d/B/ G/A/ | B B/D/ c/D/ | d d "D"c/A/ | "G" G G "D"F | "G"G2 :|
A/B/ :: "Am"c c/d/B/c/ | "D"A A B/c/ | "G"d d/e/ c/d/ | B B g/f/ | "C"e e/g/ "D"f/e/ | "G"d d/B/ G/A/ | "D7"B B/c/ B/A/ |"G" G2 :|
%%footer $D   Galouvielle-MBe 2005 \nPolka France
